!!!OTL: 157. Hopke
!!!Genre:	Hopke
!!!Mode:	Major
!!!Listening/dance:	dance
!!!One_Mode:	yes
**kern
*I"P1
*clefG2
*k[f#]
*G:
*M2/4
*>A
=1
8b
4g
8g
=2
8aL
8bJ
4cc
=3
8bL
16ccL
16bJJ
8aL
8gJ
=4
8dd
8r
(8.dd^L
16ccJk)
=5
8b
4g
8g
=6
8aL
8bJ
4cc
=7
8bL
16ccL
16bJJ
8aL
8ddJ
=8
4g
4g
=9:|!|:
*>B
16bLL
16ccJJ
4dd
8dd
=10
(16dd#XLL
16eeJ)
8ee'J
4cc
=11
8bL
16ccL
16bJJ
8aL
8gJ
=12
8dd
8r
8.ddL
16ccJk
=13
16bLL
16ccJJ
4dd
8dd
=14
(16dd#XLL
16eeJ)
8ee'J
4cc
=15
16bLL
16ccJ
8bJ
8aL
8aJ
=16
4g
4g
=:|!
*-
